svgs/light/diagram-nested.svg

<svg xmlns="http://www.w3.org/2000/svg" viewBox="0 0 448 512"><!--! Font Awesome Pro 6.6.0 by @fontawesome - https://fontawesome.com License - https://fontawesome.com/license (Commercial License) Copyright 2024 Fonticons, Inc. --><path d="M144 64c8.8 0 16 7.2 16 16l0 96c0 8.8-7.2 16-16 16l-32 0-32 0-32 0c-8.8 0-16-7.2-16-16l0-96c0-8.8 7.2-16 16-16l96 0zM112 224l32 0c26.5 0 48-21.5 48-48l0-96c0-26.5-21.5-48-48-48L48 32C21.5 32 0 53.5 0 80l0 96c0 26.5 21.5 48 48 48l32 0 0 96c0 44.2 35.8 80 80 80l96 0 0 32c0 26.5 21.5 48 48 48l96 0c26.5 0 48-21.5 48-48l0-96c0-26.5-21.5-48-48-48l-96 0c-26.5 0-48 21.5-48 48l0 32-96 0c-26.5 0-48-21.5-48-48l0-96zM288 368l0-32c0-8.8 7.2-16 16-16l96 0c8.8 0 16 7.2 16 16l0 96c0 8.8-7.2 16-16 16l-96 0c-8.8 0-16-7.2-16-16l0-32 0-32z"/></svg>

<svg xmlns="http://www.w3.org/2000/svg" viewBox="0 0 448 512"><!--! Font Awesome Pro 6.5.2 by @fontawesome - https://fontawesome.com License - https://fontawesome.com/license (Commercial License) Copyright 2024 Fonticons, Inc. --><path d="M144 64c8.8 0 16 7.2 16 16v96c0 8.8-7.2 16-16 16H112 80 48c-8.8 0-16-7.2-16-16V80c0-8.8 7.2-16 16-16h96zM112 224h32c26.5 0 48-21.5 48-48V80c0-26.5-21.5-48-48-48H48C21.5 32 0 53.5 0 80v96c0 26.5 21.5 48 48 48H80v96c0 44.2 35.8 80 80 80h96v32c0 26.5 21.5 48 48 48h96c26.5 0 48-21.5 48-48V336c0-26.5-21.5-48-48-48H304c-26.5 0-48 21.5-48 48v32H160c-26.5 0-48-21.5-48-48V224zM288 368V336c0-8.8 7.2-16 16-16h96c8.8 0 16 7.2 16 16v96c0 8.8-7.2 16-16 16H304c-8.8 0-16-7.2-16-16V400 368z"/></svg>
